Origami/22x22/apps/solaar.svg

<svg width="22" height="22" version="1" xmlns="http://www.w3.org/2000/svg">
 <rect transform="matrix(0,-1,-1,0,0,0)" x="-21" y="-21" width="20" height="20" rx="1" ry="1" style="fill:#029499"/>
 <path d="m1 2.5v-0.5c0-0.554 0.446-1 1-1h18c0.554 0 1 0.446 1 1v0.5c0-0.554-0.446-1-1-1h-18c-0.554 0-1 0.446-1 1z" style="fill:#ffffff;opacity:.2"/>
 <path d="m1 20v0.5c0 0.554 0.446 1 1 1h18c0.554 0 1-0.446 1-1v-0.5c0 0.554-0.446 1-1 1h-18c-0.554 0-1-0.446-1-1z" style="opacity:.2"/>
 <path d="m8.3671875 4.937-1.734375 1 1.5644531 2.7089844a4 4 0 0 0 -1.0644531 1.8535156h-3.1328125v2h3.1308594a4 4 0 0 0 1.0683594 1.851562l-1.5664063 2.710938 1.734375 1 1.5644535-2.710938a4 4 0 0 0 1.068359 0.148438 4 4 0 0 0 1.070312 -0.146484l1.5625 2.708984 1.734376-1-1.564454-2.708984a4 4 0 0 0 1.064454 -1.853516h3.132812v-2h-3.130859a4 4 0 0 0 -1.06836 -1.8515625l1.566407-2.7109375-1.734376-1-1.564453 2.7109375a4 4 0 0 0 -1.068359 -0.1484375 4 4 0 0 0 -1.070312 0.1464844l-1.5625005-2.7089844zm2.6328125 4.5625a2 2 0 0 1 2 2 2 2 0 0 1 -2 2 2 2 0 0 1 -2 -2 2 2 0 0 1 2 -2z" style="opacity:.2"/>
 <path d="m 8.3671875,4.4375 -1.734375,1 1.5644531,2.7089844 A 4,4 0 0 0 7.1328125,10 L 4,10 l 0,2 3.1308594,0 a 4,4 0 0 0 1.0683594,1.851562 l -1.5664063,2.710938 1.734375,1 1.5644535,-2.710938 A 4,4 0 0 0 11,15 4,4 0 0 0 12.070312,14.853516 l 1.5625,2.708984 1.734376,-1 -1.564454,-2.708984 A 4,4 0 0 0 14.867188,12 L 18,12 18,10 14.869141,10 A 4,4 0 0 0 13.800781,8.1484375 L 15.367188,5.4375 l -1.734376,-1 -1.564453,2.7109375 A 4,4 0 0 0 11,7 4,4 0 0 0 9.929688,7.1464844 L 8.3671875,4.4375 Z M 11,9 a 2,2 0 0 1 2,2 2,2 0 0 1 -2,2 2,2 0 0 1 -2,-2 2,2 0 0 1 2,-2 z" style="fill:#ffffff"/>
</svg>

<svg xmlns="http://www.w3.org/2000/svg" width="22" height="22" version="1">
 <rect style="fill:#029499" width="20" height="20" x="-21" y="-21" rx="1" ry="1" transform="matrix(0,-1,-1,0,0,0)"/>
 <path style="opacity:0.2;fill:#ffffff" d="M 1,2.5 1,2 C 1,1.446 1.446,1 2,1 l 18,0 c 0.554,0 1,0.446 1,1 l 0,0.5 c 0,-0.554 -0.446,-1 -1,-1 l -18,0 c -0.554,0 -1,0.446 -1,1 z"/>
 <path style="opacity:0.2" d="m 1,20 0,0.5 c 0,0.554 0.446,1 1,1 l 18,0 c 0.554,0 1,-0.446 1,-1 L 21,20 c 0,0.554 -0.446,1 -1,1 L 2,21 C 1.446,21 1,20.554 1,20 Z"/>
 <path style="opacity:0.2" d="m 8.3671875,4.937 -1.734375,1 1.5644531,2.7089844 A 4,4 0 0 0 7.1328125,10.4995 L 4,10.4995 l 0,2 3.1308594,0 a 4,4 0 0 0 1.0683594,1.851562 L 6.6328125,17.062 l 1.734375,1 1.5644535,-2.710938 A 4,4 0 0 0 11,15.4995 4,4 0 0 0 12.070312,15.353016 l 1.5625,2.708984 1.734376,-1 -1.564454,-2.708984 A 4,4 0 0 0 14.867188,12.4995 l 3.132812,0 0,-2 -3.130859,0 A 4,4 0 0 0 13.800781,8.6479375 L 15.367188,5.937 l -1.734376,-1 -1.564453,2.7109375 A 4,4 0 0 0 11,7.4995 4,4 0 0 0 9.929688,7.6459844 L 8.3671875,4.937 Z M 11,9.4995 a 2,2 0 0 1 2,2 2,2 0 0 1 -2,2 2,2 0 0 1 -2,-2 2,2 0 0 1 2,-2 z"/>
 <path style="fill:#ffffff" d="m 8.3671875,4.4375 -1.734375,1 1.5644531,2.7089844 A 4,4 0 0 0 7.1328125,10 L 4,10 l 0,2 3.1308594,0 a 4,4 0 0 0 1.0683594,1.851562 l -1.5664063,2.710938 1.734375,1 1.5644535,-2.710938 A 4,4 0 0 0 11,15 4,4 0 0 0 12.070312,14.853516 l 1.5625,2.708984 1.734376,-1 -1.564454,-2.708984 A 4,4 0 0 0 14.867188,12 L 18,12 18,10 14.869141,10 A 4,4 0 0 0 13.800781,8.1484375 L 15.367188,5.4375 l -1.734376,-1 -1.564453,2.7109375 A 4,4 0 0 0 11,7 4,4 0 0 0 9.929688,7.1464844 L 8.3671875,4.4375 Z M 11,9 a 2,2 0 0 1 2,2 2,2 0 0 1 -2,2 2,2 0 0 1 -2,-2 2,2 0 0 1 2,-2 z"/>
</svg>
